resources/devices/chair_3.svg

<?xml version="1.0" encoding="UTF-8" standalone="no"?>
<!-- Uploaded to: SVG Repo, www.svgrepo.com, Generator: SVG Repo Mixer Tools -->

<svg
   fill="#000000"
   height="55"
   width="39.53125"
   version="1.1"
   id="Layer_1"
   viewBox="0 0 39.53125 55"
   xml:space="preserve"
   sodipodi:docname="chair_3.svg"
   inkscape:version="1.3.2 (091e20e, 2023-11-25)"
   xmlns:inkscape="http://www.inkscape.org/namespaces/inkscape"
   xmlns:sodipodi="http://sodipodi.sourceforge.net/DTD/sodipodi-0.dtd"
   xmlns="http://www.w3.org/2000/svg"
   xmlns:svg="http://www.w3.org/2000/svg"><defs
   id="defs4">
	

		
	
	

		
	</defs><sodipodi:namedview
   id="namedview4"
   pagecolor="#ffffff"
   bordercolor="#000000"
   borderopacity="0.25"
   inkscape:showpageshadow="2"
   inkscape:pageopacity="0.0"
   inkscape:pagecheckerboard="0"
   inkscape:deskcolor="#d1d1d1"
   inkscape:current-layer="Layer_1" />
<path
   id="path1"
   style="fill:#404040;stroke-width:0.107422"
   d="m 0,0 v 29.347572 c 0,0.67246 0.49156653,1.16024 1.1635971,1.16024 H 3.813057 L 16.556817,42.282047 19.275303,39.710426 9.2494011,30.507812 H 30.16058 L 3.813057,55 H 9.2494011 L 35.597133,30.507812 h 2.648831 c 0.67246,0 1.285286,-0.487769 1.285286,-1.16066 v -2.14529 c 0,-0.672459 -0.612826,-1.420612 -1.285286,-1.420612 H 3.8671875 V 0 Z M 22.852954,43.448792 20.160065,46.008873 30.16058,55 h 5.436973 z"
   sodipodi:nodetypes="cssccccccccsssscccccccc" />

</svg>

<svg xmlns="http://www.w3.org/2000/svg" xml:space="preserve" width="39.531" height="55">
    <path d="M0 0v29.348c0 .672.492 1.16 1.164 1.16h2.65l12.743 11.774 2.718-2.572L9.25 30.508h20.912L3.813 55H9.25l26.348-24.492h2.649c.672 0 1.285-.488 1.285-1.16v-2.146c0-.673-.613-1.42-1.285-1.42H3.867V0Zm22.853 43.449-2.693 2.56 10 8.991h5.438z" style="fill:#404040;stroke-width:.107422"/>
</svg>
